; HEADER_BLOCK_START
; generated by Creality_Print V6.3.0.3420 on 2026-01-21 at 17:16:27
; total layer number: 160
; filament_density: 1.24
; filament_diameter: 1.75
; max_z_height: 25.00
; creality_uuid: e8037b3d-9d9c-48d0-a23a-eafcfabf6c0d
; HEADER_BLOCK_END

; MINX = 5.00
; MINY = 90.05
; MINZ = 0.00
; MAXX = 215.00
; MAXY = 130.05
; MAXZ = 25.00

; multicolor_method = 0 
; THUMBNAIL_BLOCK_START

;
; THUMBNAIL_BLOCK_END

; THUMBNAIL_BLOCK_START

;
; THUMBNAIL_BLOCK_END

; external perimeters extrusion width = 0.42mm
; perimeters extrusion width = 0.45mm
; infill extrusion width = 0.45mm
; solid infill extrusion width = 0.42mm
; top infill extrusion width = 0.42mm
; support material extrusion width = 0.42mm
; first layer extrusion width = 0.50mm

; EXECUTABLE_BLOCK_START
EXCLUDE_OBJECT_DEFINE NAME=blancing_under.stl_id_0_copy_0 CENTER=110.002,110.047 POLYGON=[[5.00216,91.0465],[10.7433,90.0806],[11.0022,90.0465],[209.002,90.0465],[209.261,90.0806],[215.002,91.0465],[215.002,129.047],[209.261,130.012],[209.002,130.047],[11.0022,130.047],[10.7433,130.012],[5.00216,129.047],[5.00216,91.0465]]
M73 P0 R53
; max_print_temp = 50,220
;TYPE:Custom
M220 S100 ;Reset Feedrate 
M221 S100 ;Reset Flowrate 
 
M140 S50 ;Set final bed temp  
G28 ;Home 
 
G92 E0 ;Reset Extruder 
G1 Z2.0 F3000 ;Move Z Axis up 
M104 S220 ;Set final nozzle temp  
G1 X-2.0 Y20 Z0.28 F5000.0 ;Move to start position 
M190 S50 ;Wait for bed temp to stabilize  
M109 S220 ;Wait for nozzle temp to stabilize  
G1 X-2.0 Y145.0 Z0.28 F1500.0 E15 ;Draw the first line 
G1 X-1.7 Y145.0 Z0.28 F5000.0 ;Move to side a little 
G1 X-1.7 Y20 Z0.28 F1500.0 E30 ;Draw the second line 
G92 E0 ;Reset Extruder 
G1 E-1.0000 F1800 ;Retract a bit 
M73 P0 R52
G1 Z2.0 F3000 ;Move Z Axis up 
G1 E0.0000 F1800
G90
G21
M83 ; use relative distances for extrusion
; filament start gcode
SET_PRESSURE_ADVANCE ADVANCE=0.044; Override pressure advance value
G1 E-.8 F1800
G1 Z.2 F18000
M106 S0
;LAYER_CHANGE
;Z:0.2
;HEIGHT:0.2
;BEFORE_LAYER_CHANGE
;0.2
G92 E0

;_SET_FAN_SPEED_CHANGING_LAYER
SET_VELOCITY_LIMIT ACCEL=500 ACCEL_TO_DECEL=125
SET_VELOCITY_LIMIT SQUARE_CORNER_VELOCITY=9
; printing object blancing under.stl id:0 copy 0
EXCLUDE_OBJECT_START NAME=blancing_under.stl_id_0_copy_0
G1 X4.552 Y90.86 Z.4 F18000
G1 Z.2
G1 E.8 F1800
;TYPE:Support
;WIDTH:0.5
G1 F3000
G1 X4.552 Y100.477 E.34721
G1 X1.612 Y100.477 E.10616
G1 X1.612 Y90.846 E.34774
G1 X4.519 Y90.846 E.10496
G1 X3.858 Y100.271 F18000
G1 F3000
G1 X3.858 Y91.257 E.32546
G1 X3.35 Y91.257 E.01834
G1 X3.35 Y100.065 E.31803
G1 X2.842 Y100.065 E.01834
G1 X2.842 Y91.257 E.31803
G1 X2.335 Y91.257 E.01834
G1 X2.335 Y100.271 E.32546
G1 E-.56 F1800
;WIPE_START
G1 F3000
G1 X2.335 Y99.271 E-.228
;WIPE_END
G1 E-.012 F1800
G1 X2.616 Y103.077 Z.4 F18000
G1 X4.552 Y129.233 Z.4
G1 Z.2
G1 E.8 F1800
G1 F3000
G1 X4.567 Y129.247 E.00074
G1 X1.612 Y129.247 E.10669
G1 X1.612 Y119.616 E.34774
G1 X4.552 Y119.616 E.10616
G1 X4.552 Y129.164 E.34474
G1 X3.858 Y129.042 F18000
G1 F3000
G1 X3.858 Y120.028 E.32546
G1 X3.35 Y120.028 E.01834
G1 X3.35 Y128.836 E.31803
G1 X2.842 Y128.836 E.01834
G1 X2.842 Y120.028 E.31803
G1 X2.335 Y120.028 E.01834
G1 X2.335 Y129.042 E.32546
G1 E-.56 F1800
;WIPE_START
G1 F3000
G1 X2.335 Y128.042 E-.228
;WIPE_END
G1 E-.012 F1800
G1 X6.151 Y128.063 Z.4 F18000
G1 X218.393 Y129.247 Z.4
G1 Z.2
G1 E.8 F1800
G1 F3000
G1 X215.438 Y129.247 E.10669
G1 X215.452 Y129.233 E.00074
G1 X215.452 Y119.616 E.34721
G1 X218.393 Y119.616 E.10617
G1 X218.393 Y129.179 E.34526
G1 X217.67 Y129.042 F18000
G1 F3000
G1 X217.67 Y120.028 E.32546
G1 X217.162 Y120.028 E.01834
G1 X217.162 Y128.836 E.31803
G1 X216.654 Y128.836 E.01834
G1 X216.654 Y120.028 E.31803
G1 X216.146 Y120.028 E.01834
G1 X216.146 Y129.042 E.32546
G1 E-.56 F1800
;WIPE_START
G1 F3000
G1 X216.146 Y128.042 E-.228
;WIPE_END
G1 E-.012 F1800
G1 X216.456 Y124.238 Z.4 F18000
G1 X218.393 Y100.477 Z.4
G1 Z.2
G1 E.8 F1800
G1 F3000
G1 X215.452 Y100.477 E.10617
G1 X215.452 Y90.86 E.34721
G1 X215.438 Y90.846 E.00074
G1 X218.393 Y90.846 E.10669
G1 X218.393 Y100.408 E.34526
G1 X217.67 Y100.271 F18000
G1 F3000
G1 X217.67 Y91.257 E.32546
G1 X217.162 Y91.257 E.01834
G1 X217.162 Y100.065 E.31803
G1 X216.654 Y100.065 E.01834
G1 X216.654 Y91.257 E.31803
G1 X216.146 Y91.257 E.01834
G1 X216.146 Y100.271 E.32546
G1 E-.56 F1800
;WIPE_START
G1 F3000
G1 X216.146 Y99.271 E-.228
;WIPE_END
G1 E-.012 F1800
G1 X215.271 Y102.985 Z.4 F18000
G1 X209.21 Y128.698 Z.4
G1 Z.2
G1 E.8 F1800
;TYPE:Inner wall
;WIDTH:0.499999
G1 F3000
G1 X209.172 Y128.786 E.00344
G2 X209.099 Y129.141 I1.704 J.534 E.01311
G1 X208.946 Y129.189 E.00581
G1 X11.072 Y129.189 E7.14442
G1 X10.906 Y129.142 E.00623
G2 X10.682 Y128.439 I-1.802 J.188 E.02683
G1 X10.419 Y128.243 E.01184
G1 X10.153 Y128.189 E.00982
G1 X5.859 Y128.189 E.15501
G1 X5.859 Y91.904 E1.31014
G1 X10.153 Y91.904 E.15501
G1 X10.434 Y91.843 E.01038
G1 X10.682 Y91.653 E.0113
G2 X10.905 Y90.952 I-1.554 J-.88 E.02674
G1 X11.058 Y90.904 E.00581
G1 X208.938 Y90.904 E7.14462
M73 P1 R52
G1 X209.098 Y90.951 E.00603
G2 X209.322 Y91.654 I1.801 J-.188 E.02684
G1 X209.536 Y91.826 E.0099
G1 X209.852 Y91.904 E.01175
G1 X214.145 Y91.904 E.15501
G1 X214.145 Y128.189 E1.31014
G1 X209.852 Y128.189 E.15501
G1 X209.535 Y128.267 E.01176
G1 X209.322 Y128.44 E.00992
G1 X209.226 Y128.662 E.00873
G1 X209.82 Y128.647 F18000
;TYPE:Outer wall
G1 F3000
G1 X209.675 Y128.73 E.00604
G3 X209.519 Y129.345 I-8.194 J-1.757 E.02291
G1 X209.297 Y129.565 E.01129
G1 X208.976 Y129.647 E.01195
G1 X12.271 Y129.647 E7.10222
G1 X10.848 Y129.623 E.05139
G1 X10.58 Y129.468 E.01115
G1 X10.456 Y129.273 E.00837
G1 X10.379 Y128.845 E.01569
G1 X10.286 Y128.69 E.00654
G1 X10.153 Y128.647 E.00507
G1 X5.402 Y128.647 E.17152
G1 X5.402 Y91.447 E1.34314
G1 X10.184 Y91.447 E.17266
G1 X10.329 Y91.363 E.00604
G3 X10.486 Y90.748 I8.184 J1.755 E.02291
G1 X10.708 Y90.528 E.01129
G1 X11.028 Y90.447 E.01195
G1 X207.735 Y90.447 E7.10227
G1 X209.157 Y90.47 E.05135
G1 X209.424 Y90.625 E.01115
G1 X209.549 Y90.82 E.00837
G1 X209.625 Y91.248 E.01569
G1 X209.718 Y91.403 E.00654
G1 X209.852 Y91.447 E.00507
G1 X214.602 Y91.447 E.17152
G1 X214.602 Y128.647 E1.34314
G1 X209.86 Y128.647 E.17121
G1 X209.788 Y128.639
G1 E-.56 F1800
;WIPE_START
G1 F3000
G1 X209.675 Y128.73 E-.04627
G1 X209.519 Y129.345 E-.14465
G1 X209.403 Y129.459 E-.03708
;WIPE_END
G1 E-.012 F1800
G1 X206.371 Y127.142 Z.4 F18000
G1 X175.479 Y103.536 Z.4
G1 Z.2
G1 E.8 F1800
;TYPE:Inner wall
G1 F3000
G1 X175.646 Y103.095 E.01703
G3 X176.685 Y101.145 I181.607 J95.477 E.07978
G1 X177.944 Y99.383 E.0782
G1 X179.419 Y97.797 E.0782
G1 X181.085 Y96.413 E.0782
G1 X182.915 Y95.254 E.0782
G1 X184.879 Y94.339 E.0782
G1 X186.943 Y93.684 E.0782
G1 X189.074 Y93.298 E.0782
G1 X191.238 Y93.189 E.0782
G1 X193.397 Y93.359 E.0782
G1 X195.517 Y93.803 E.0782
G1 X197.562 Y94.516 E.0782
G1 X199.499 Y95.485 E.0782
G1 X201.296 Y96.695 E.0782
G1 X202.889 Y98.096 E.07661
G3 X204.353 Y99.752 I-88.806 J79.951 E.07978
G1 X205.562 Y101.548 E.0782
G1 X206.532 Y103.485 E.0782
G1 X207.245 Y105.53 E.0782
G1 X207.69 Y107.65 E.0782
G1 X207.859 Y109.809 E.0782
G1 X207.751 Y111.973 E.0782
G1 X207.365 Y114.104 E.0782
G1 X206.71 Y116.168 E.0782
G1 X205.796 Y118.132 E.0782
G1 X204.661 Y119.925 E.07661
G3 X203.253 Y121.628 I-118.243 J-96.251 E.07978
G1 X201.667 Y123.103 E.0782
G1 X199.905 Y124.363 E.0782
G1 X197.996 Y125.386 E.0782
G1 X195.972 Y126.156 E.0782
G1 X193.865 Y126.66 E.0782
G1 X191.712 Y126.89 E.0782
G1 X189.546 Y126.842 E.0782
G1 X187.405 Y126.517 E.0782
G1 X185.323 Y125.92 E.0782
G1 X183.335 Y125.061 E.0782
G1 X181.473 Y123.954 E.0782
G1 X179.769 Y122.617 E.0782
G1 X178.25 Y121.073 E.0782
G1 X176.968 Y119.383 E.07661
G3 X175.887 Y117.506 I102.221 J-60.147 E.07819
G3 X175.294 Y116.086 I71.266 J-30.564 E.05557
G1 X174.734 Y116.123 E.02026
G3 X173.317 Y115.904 I3.098 J-24.823 E.05179
G1 X172.066 Y115.379 E.04897
G1 X170.97 Y114.581 E.04897
G1 X170.086 Y113.552 E.04897
G1 X169.462 Y112.348 E.04897
G1 X169.132 Y111.032 E.04897
G1 X169.113 Y109.676 E.04897
G1 X169.406 Y108.352 E.04897
G1 X169.996 Y107.131 E.04897
G1 X170.85 Y106.077 E.04897
G1 X171.924 Y105.248 E.04897
G1 X173.086 Y104.721 E.04609
G3 X174.569 Y104.43 I3.667 J14.764 E.0546
G1 X175.13 Y104.452 E.02026
G1 X175.464 Y103.573 E.03393
G1 X175.441 Y104.921 F18000
;TYPE:Outer wall
G1 F3000
G1 X176.073 Y103.258 E.06425
G3 X177.074 Y101.387 I492.644 J262.252 E.07661
G1 X178.299 Y99.672 E.07608
G1 X179.734 Y98.129 E.07608
G1 X181.355 Y96.783 E.07608
G1 X183.135 Y95.656 E.07608
G1 X185.045 Y94.766 E.07608
G1 X187.053 Y94.128 E.07608
G1 X189.127 Y93.753 E.07608
G1 X191.231 Y93.647 E.07608
G1 X193.332 Y93.812 E.07608
G1 X195.394 Y94.245 E.07608
G1 X197.384 Y94.938 E.07608
G1 X199.268 Y95.881 E.07608
G1 X201.016 Y97.058 E.07608
G1 X202.588 Y98.439 E.07555
G3 X203.99 Y100.031 I-232.909 J206.539 E.07661
G1 X205.167 Y101.779 E.07608
G1 X206.11 Y103.663 E.07608
G1 X206.804 Y105.653 E.07608
G1 X207.236 Y107.715 E.07608
G1 X207.401 Y109.816 E.07608
G1 X207.296 Y111.92 E.07608
G1 X206.921 Y113.994 E.07608
G1 X206.283 Y116.002 E.07608
G1 X205.394 Y117.912 E.07608
G1 X204.274 Y119.68 E.07555
G3 X202.92 Y121.314 I-310.628 J-256.123 E.07661
G1 X201.377 Y122.748 E.07607
G1 X199.663 Y123.974 E.07608
G1 X197.806 Y124.969 E.07608
G1 X195.837 Y125.719 E.07608
G1 X193.788 Y126.209 E.07608
G1 X191.692 Y126.433 E.07608
G1 X189.586 Y126.386 E.07608
G1 X187.503 Y126.07 E.07608
G1 X185.477 Y125.489 E.07608
G1 X183.543 Y124.653 E.07608
G1 X181.732 Y123.576 E.07608
G1 X180.074 Y122.276 E.07608
G1 X178.596 Y120.774 E.07608
G1 X177.332 Y119.106 E.07555
G3 X176.283 Y117.279 I271.363 J-156.948 E.07607
G3 X175.591 Y115.608 I226.317 J-94.692 E.06531
G1 X174.704 Y115.667 E.03211
G3 X173.445 Y115.462 I8.303 J-55.158 E.04606
G1 X172.292 Y114.979 E.04513
G1 X171.282 Y114.243 E.04513
G1 X170.467 Y113.295 E.04513
G1 X169.893 Y112.185 E.04513
G1 X169.589 Y110.973 E.04513
G1 X169.571 Y109.723 E.04513
G1 X169.841 Y108.503 E.04513
G1 X170.384 Y107.377 E.04513
G1 X171.172 Y106.407 E.04512
G1 X172.161 Y105.643 E.04513
G1 X173.275 Y105.138 E.04416
G3 X174.552 Y104.887 I7.094 J32.771 E.047
G1 X175.401 Y104.919 E.03067
G1 X175.416 Y104.845
G1 E-.56 F1800
;WIPE_START
G1 F3000
G1 X175.776 Y103.992 E-.228
;WIPE_END
G1 E-.012 F1800
G1 X171.96 Y103.985 Z.4 F18000
G1 X45.638 Y103.75 Z.4
G1 Z.2
G1 E.8 F1800
;TYPE:Inner wall
G1 F3000
G1 X46.401 Y103.818 E.02768
G3 X47.723 Y104.226 I-5.598 J20.457 E.04994
G1 X48.847 Y104.894 E.04722
G1 X49.796 Y105.794 E.04722
G1 X50.522 Y106.882 E.04722
G1 X50.988 Y108.104 E.04722
G1 X51.172 Y109.399 E.04722
G1 X51.064 Y110.702 E.04722
G1 X50.67 Y111.949 E.04722
G1 X50.009 Y113.078 E.04722
G1 X49.114 Y114.032 E.04722
G1 X48.094 Y114.721 E.04444
G3 X46.883 Y115.21 I-10.398 J-24.024 E.04716
G3 X45.594 Y115.418 I-5.027 J-27.053 E.04716
G1 X44.961 Y115.386 E.02289
G1 X44.467 Y116.76 E.05272
G1 X43.477 Y118.689 E.07829
G1 X42.248 Y120.476 E.07829
G1 X40.8 Y122.09 E.07829
G1 X39.157 Y123.504 E.07829
G1 X37.345 Y124.696 E.07829
G1 X35.396 Y125.646 E.07829
G1 X33.341 Y126.338 E.07829
G1 X31.214 Y126.76 E.07829
G1 X29.051 Y126.905 E.07829
G1 X26.886 Y126.772 E.07829
G1 X24.757 Y126.362 E.07829
G1 X22.698 Y125.682 E.07829
G1 X20.743 Y124.744 E.07829
G1 X18.925 Y123.562 E.07829
G1 X17.307 Y122.186 E.0767
G3 X15.846 Y120.584 I134.083 J-123.824 E.07828
G3 X14.577 Y118.772 I113.184 J-80.615 E.07987
G1 X13.577 Y116.849 E.07829
G1 X12.831 Y114.813 E.07829
G1 X12.353 Y112.698 E.07829
G1 X12.15 Y110.539 E.07829
G1 X12.227 Y108.372 E.07829
G1 X12.58 Y106.233 E.07829
G1 X13.206 Y104.156 E.07829
G1 X14.092 Y102.178 E.07829
G1 X15.203 Y100.367 E.07669
G3 X16.587 Y98.641 I119.574 J94.51 E.07987
G1 X18.153 Y97.142 E.07829
G1 X19.9 Y95.856 E.07829
G1 X21.796 Y94.805 E.07829
G1 X23.812 Y94.006 E.07829
G1 X25.914 Y93.473 E.07829
G1 X28.066 Y93.214 E.07829
G1 X30.235 Y93.233 E.07829
G1 X32.382 Y93.53 E.07829
G1 X34.474 Y94.101 E.07829
G1 X36.476 Y94.935 E.07829
G1 X38.354 Y96.019 E.07829
G1 X40.077 Y97.335 E.07829
G1 X41.617 Y98.862 E.07829
G1 X42.921 Y100.539 E.07669
G3 X44.026 Y102.404 I-86.247 J52.369 E.07828
G3 X44.622 Y103.784 I-81.92 J36.171 E.0543
G1 X45.252 Y103.716 E.02289
G1 X45.598 Y103.747 E.01254
G1 X44.338 Y104.284 F18000
;TYPE:Outer wall
G1 F3000
G1 X45.161 Y104.172 E.02996
G3 X46.361 Y104.273 I-5.054 J67.385 E.04349
G1 X47.533 Y104.645 E.0444
G1 X48.57 Y105.261 E.04354
G1 X49.444 Y106.09 E.04352
G1 X50.113 Y107.093 E.04352
G1 X50.543 Y108.219 E.04352
G1 X50.712 Y109.412 E.04352
G1 X50.613 Y110.613 E.04352
G1 X50.249 Y111.763 E.04352
G1 X49.64 Y112.803 E.04352
G1 X48.816 Y113.682 E.04352
G1 X47.838 Y114.342 E.04259
G3 X46.718 Y114.784 I-23.164 J-57.174 E.04349
G3 X45.527 Y114.966 I-10.473 J-64.551 E.04349
G1 X44.648 Y114.904 E.03179
G1 X44.046 Y116.578 E.06423
G1 X43.084 Y118.455 E.07616
G1 X41.888 Y120.192 E.07616
G1 X40.479 Y121.762 E.07616
G1 X38.881 Y123.139 E.07616
G1 X37.119 Y124.298 E.07616
G1 X35.222 Y125.222 E.07616
G1 X33.223 Y125.895 E.07616
G1 X31.154 Y126.306 E.07616
G1 X29.049 Y126.447 E.07616
G1 X26.944 Y126.318 E.07616
G1 X24.872 Y125.919 E.07616
G1 X22.869 Y125.258 E.07616
G1 X20.968 Y124.345 E.07616
G1 X19.199 Y123.195 E.07616
G1 X17.604 Y121.838 E.07563
G3 X16.185 Y120.277 I369.303 J-337.266 E.07616
M73 P2 R52
G3 X14.969 Y118.535 I300.767 J-211.18 E.07669
G1 X13.996 Y116.664 E.07616
G1 X13.27 Y114.683 E.07616
G1 X12.805 Y112.626 E.07616
G1 X12.608 Y110.525 E.07616
G1 X12.682 Y108.417 E.07616
G1 X13.027 Y106.336 E.07616
G1 X13.635 Y104.316 E.07616
G1 X14.497 Y102.391 E.07616
G1 X15.592 Y100.606 E.07563
G3 X16.924 Y98.951 I317.04 J253.855 E.07669
G1 X18.448 Y97.493 E.07616
G1 X20.147 Y96.242 E.07616
G1 X21.992 Y95.219 E.07616
G1 X23.953 Y94.442 E.07616
G1 X25.998 Y93.923 E.07616
G1 X28.092 Y93.671 E.07616
G1 X30.201 Y93.69 E.07616
G1 X32.291 Y93.979 E.07616
G1 X34.326 Y94.534 E.07616
G1 X36.273 Y95.345 E.07616
G1 X38.1 Y96.4 E.07616
G1 X39.776 Y97.681 E.07616
G1 X41.274 Y99.166 E.07616
G1 X42.56 Y100.819 E.07563
G3 X43.632 Y102.636 I-403.075 J239.146 E.07616
G3 X44.323 Y104.247 I-268.563 J116.008 E.06331
G1 X44.396 Y104.228
G1 E-.56 F1800
;WIPE_START
G1 F3000
M73 P2 R51
G1 X45.161 Y104.172 E-.19182
G1 X45.319 Y104.186 E-.03618
;WIPE_END
G1 E-.012 F1800
G1 X214.008 Y92.966 Z.4 F18000
G1 Z.4
G1 Z.2
G1 E.8 F1800
;TYPE:Bottom surface
;WIDTH:0.500784
G1 F6300
G1 X213.288 Y92.246 E.03683
G1 X212.64 Y92.246 E.02342
G1 X213.802 Y93.408 E.05942
G1 X213.802 Y94.056 E.02342
G1 X211.993 Y92.246 E.09254
G1 X211.345 Y92.246 E.02342
G1 X213.802 Y94.703 E.12566
G1 X213.802 Y95.351 E.02342
G1 X210.698 Y92.246 E.15878
G1 X210.05 Y92.246 E.02342
G1 X213.802 Y95.998 E.1919
G1 X213.802 Y96.646 E.02342
G1 X208.404 Y91.247 E.27614
G1 X207.756 Y91.247 E.02342
G1 X213.802 Y97.293 E.30926
G1 X213.802 Y97.941 E.02342
G1 X207.109 Y91.247 E.34238
G1 X206.461 Y91.247 E.02342
G1 X213.802 Y98.588 E.3755
G1 X213.802 Y99.236 E.02342
G1 X205.814 Y91.247 E.40862
G1 X205.166 Y91.247 E.02342
G1 X213.802 Y99.883 E.44174
G1 X213.802 Y100.531 E.02342
G1 X204.518 Y91.247 E.47486
G1 X203.871 Y91.247 E.02342
G1 X213.802 Y101.178 E.50798
G1 X213.802 Y101.826 E.02342
G1 X203.223 Y91.247 E.5411
G1 X202.576 Y91.247 E.02342
G1 X213.802 Y102.473 E.57422
G1 X213.802 Y103.121 E.02342
G1 X201.928 Y91.247 E.60734
G1 X201.281 Y91.247 E.02342
G1 X213.802 Y103.768 E.64046
G1 X213.802 Y104.416 E.02342
G1 X200.633 Y91.247 E.67358
G1 X199.986 Y91.247 E.02342
G1 X213.802 Y105.064 E.7067
G1 X213.802 Y105.711 E.02342
G1 X199.338 Y91.247 E.73982
G1 X198.691 Y91.247 E.02342
G1 X213.802 Y106.359 E.77294
G1 X213.802 Y107.006 E.02342
G1 X198.043 Y91.247 E.80606
G1 X197.396 Y91.247 E.02342
G1 X213.802 Y107.654 E.83918
G1 X213.802 Y108.301 E.02342
G1 X196.748 Y91.247 E.8723
G1 X196.101 Y91.247 E.02342
G1 X200.805 Y95.952 E.24063
G1 X201.456 Y96.39 E.02839
G1 X203.121 Y97.843 E.07992
G1 X204.658 Y99.591 E.08417
G1 X205.087 Y100.234 E.02796
G1 X213.802 Y108.949 E.44577
G1 X213.802 Y109.596 E.02342
G1 X206.137 Y101.931 E.39205
G1 X206.786 Y103.228 E.05243
G1 X213.802 Y110.244 E.35887
G1 X213.802 Y110.891 E.02342
G1 X207.149 Y104.238 E.34029
