; HEADER_BLOCK_START
; generated by Creality_Print V6.3.0.3420 on 2026-01-21 at 16:46:49
; total layer number: 125
; filament_density: 1.24
; filament_diameter: 1.75
; max_z_height: 25.00
; creality_uuid: 9415335e-f728-40c3-a976-3f7838c3d092
; HEADER_BLOCK_END

; MINX = 3.10
; MINY = 103.25
; MINZ = 0.00
; MAXX = 213.10
; MAXY = 143.25
; MAXZ = 25.00

; multicolor_method = 0 
; THUMBNAIL_BLOCK_START

;
; THUMBNAIL_BLOCK_END

; THUMBNAIL_BLOCK_START

;
; THUMBNAIL_BLOCK_END

; external perimeters extrusion width = 0.42mm
; perimeters extrusion width = 0.45mm
; infill extrusion width = 0.45mm
; solid infill extrusion width = 0.42mm
; top infill extrusion width = 0.42mm
; first layer extrusion width = 0.50mm

; EXECUTABLE_BLOCK_START
EXCLUDE_OBJECT_DEFINE NAME=blancing_under.stl_id_0_copy_0 CENTER=108.098,123.253 POLYGON=[[3.09801,104.253],[8.83919,103.287],[9.09801,103.253],[207.098,103.253],[207.357,103.287],[213.098,104.253],[213.098,142.253],[207.357,143.219],[207.098,143.253],[9.09801,143.253],[8.83919,143.219],[3.09801,142.253],[3.09801,104.253]]
M73 P0 R47
; max_print_temp = 50,220
;TYPE:Custom
M220 S100 ;Reset Feedrate 
M221 S100 ;Reset Flowrate 
 
M140 S50 ;Set final bed temp  
G28 ;Home 
 
G92 E0 ;Reset Extruder 
G1 Z2.0 F3000 ;Move Z Axis up 
M104 S220 ;Set final nozzle temp  
G1 X-2.0 Y20 Z0.28 F5000.0 ;Move to start position 
M190 S50 ;Wait for bed temp to stabilize  
M109 S220 ;Wait for nozzle temp to stabilize  
G1 X-2.0 Y145.0 Z0.28 F1500.0 E15 ;Draw the first line 
G1 X-1.7 Y145.0 Z0.28 F5000.0 ;Move to side a little 
G1 X-1.7 Y20 Z0.28 F1500.0 E30 ;Draw the second line 
G92 E0 ;Reset Extruder 
G1 E-1.0000 F1800 ;Retract a bit 
M73 P0 R46
G1 Z2.0 F3000 ;Move Z Axis up 
G1 E0.0000 F1800
G90
G21
M83 ; use relative distances for extrusion
; filament start gcode
SET_PRESSURE_ADVANCE ADVANCE=0.044; Override pressure advance value
G1 E-.8 F1800
G1 Z.2 F18000
M106 S0
;LAYER_CHANGE
;Z:0.2
;HEIGHT:0.2
;BEFORE_LAYER_CHANGE
;0.2
G92 E0

;_SET_FAN_SPEED_CHANGING_LAYER
SET_VELOCITY_LIMIT ACCEL=500 ACCEL_TO_DECEL=125
SET_VELOCITY_LIMIT SQUARE_CORNER_VELOCITY=9
; printing object blancing under.stl id:0 copy 0
EXCLUDE_OBJECT_START NAME=blancing_under.stl_id_0_copy_0
G1 X207.306 Y141.904 Z.4 F18000
G1 Z.2
G1 E.8 F1800
;TYPE:Inner wall
;WIDTH:0.499999
G1 F3000
G1 X207.268 Y141.992 E.00344
G2 X207.195 Y142.347 I1.704 J.534 E.01311
G1 X207.042 Y142.396 E.00581
G1 X9.168 Y142.396 E7.14442
G1 X9.002 Y142.348 E.00623
G2 X8.778 Y141.645 I-1.802 J.188 E.02683
G1 X8.515 Y141.449 E.01184
G1 X8.248 Y141.396 E.00982
G1 X3.955 Y141.396 E.15501
G1 X3.955 Y105.11 E1.31014
G1 X8.248 Y105.11 E.15501
G1 X8.53 Y105.049 E.01038
G1 X8.778 Y104.859 E.0113
G2 X9.001 Y104.159 I-1.554 J-.88 E.02674
G1 X9.154 Y104.11 E.00581
G1 X207.033 Y104.11 E7.14462
G1 X207.194 Y104.157 E.00603
G2 X207.418 Y104.86 I1.801 J-.188 E.02684
G1 X207.631 Y105.032 E.0099
G1 X207.948 Y105.11 E.01175
G1 X212.241 Y105.11 E.15501
G1 X212.241 Y141.396 E1.31014
G1 X207.948 Y141.396 E.15501
G1 X207.631 Y141.473 E.01176
G1 X207.418 Y141.646 E.00992
G1 X207.322 Y141.868 E.00873
G1 X207.916 Y141.853 F18000
;TYPE:Outer wall
G1 F3000
G1 X207.771 Y141.936 E.00604
G3 X207.615 Y142.551 I-8.194 J-1.757 E.02291
G1 X207.392 Y142.771 E.01129
G1 X207.072 Y142.853 E.01195
G1 X10.367 Y142.853 E7.10222
G1 X8.944 Y142.829 E.05139
G1 X8.676 Y142.674 E.01115
G1 X8.552 Y142.479 E.00837
G1 X8.475 Y142.051 E.01569
G1 X8.382 Y141.896 E.00654
G1 X8.248 Y141.853 E.00507
G1 X3.498 Y141.853 E.17152
M73 P1 R46
G1 X3.498 Y104.653 E1.34314
G1 X8.28 Y104.653 E.17266
G1 X8.425 Y104.569 E.00604
G3 X8.581 Y103.954 I8.184 J1.755 E.02291
G1 X8.804 Y103.734 E.01129
G1 X9.124 Y103.653 E.01195
G1 X205.831 Y103.653 E7.10227
G1 X207.252 Y103.676 E.05135
G1 X207.52 Y103.831 E.01115
G1 X207.644 Y104.026 E.00837
G1 X207.721 Y104.454 E.01569
G1 X207.814 Y104.609 E.00654
G1 X207.948 Y104.653 E.00507
G1 X212.698 Y104.653 E.17152
G1 X212.698 Y141.853 E1.34314
G1 X207.956 Y141.853 E.17121
G1 X207.883 Y141.845
G1 E-.56 F1800
;WIPE_START
G1 F3000
G1 X207.771 Y141.936 E-.04627
G1 X207.615 Y142.551 E-.14465
G1 X207.499 Y142.665 E-.03708
;WIPE_END
G1 E-.012 F1800
G1 X204.467 Y140.348 Z.4 F18000
G1 X173.574 Y116.742 Z.4
G1 Z.2
G1 E.8 F1800
;TYPE:Inner wall
G1 F3000
G1 X173.742 Y116.301 E.01703
G3 X174.781 Y114.351 I181.607 J95.477 E.07978
G1 X176.04 Y112.589 E.0782
G1 X177.515 Y111.003 E.0782
G1 X179.181 Y109.619 E.0782
G1 X181.011 Y108.46 E.0782
G1 X182.974 Y107.545 E.0782
G1 X185.039 Y106.89 E.0782
G1 X187.17 Y106.504 E.0782
G1 X189.333 Y106.395 E.0782
G1 X191.493 Y106.565 E.0782
G1 X193.613 Y107.009 E.0782
G1 X195.658 Y107.722 E.0782
G1 X197.595 Y108.692 E.0782
G1 X199.392 Y109.901 E.0782
G1 X200.985 Y111.302 E.07661
G3 X202.448 Y112.958 I-88.806 J79.951 E.07978
G1 X203.658 Y114.754 E.0782
G1 X204.628 Y116.691 E.0782
G1 X205.341 Y118.736 E.0782
G1 X205.786 Y120.856 E.0782
G1 X205.955 Y123.015 E.0782
G1 X205.846 Y125.179 E.0782
G1 X205.461 Y127.31 E.0782
G1 X204.806 Y129.375 E.0782
G1 X203.892 Y131.338 E.0782
G1 X202.756 Y133.131 E.07661
G3 X201.349 Y134.834 I-118.243 J-96.251 E.07978
G1 X199.763 Y136.309 E.0782
G1 X198.001 Y137.569 E.0782
G1 X196.092 Y138.592 E.0782
G1 X194.068 Y139.362 E.0782
G1 X191.961 Y139.867 E.0782
G1 X189.808 Y140.097 E.0782
G1 X187.642 Y140.048 E.0782
G1 X185.501 Y139.723 E.0782
G1 X183.419 Y139.126 E.0782
G1 X181.431 Y138.267 E.0782
G1 X179.569 Y137.16 E.0782
G1 X177.864 Y135.823 E.0782
G1 X176.345 Y134.279 E.0782
G1 X175.064 Y132.589 E.07661
G3 X173.982 Y130.712 I102.221 J-60.147 E.07819
G3 X173.39 Y129.292 I71.266 J-30.564 E.05557
G1 X172.83 Y129.329 E.02026
G3 X171.413 Y129.111 I3.098 J-24.823 E.05179
G1 X170.162 Y128.585 E.04897
G1 X169.066 Y127.787 E.04897
G1 X168.182 Y126.758 E.04897
G1 X167.558 Y125.554 E.04897
G1 X167.228 Y124.238 E.04897
G1 X167.209 Y122.882 E.04897
G1 X167.502 Y121.558 E.04897
G1 X168.092 Y120.337 E.04897
G1 X168.946 Y119.283 E.04897
G1 X170.019 Y118.455 E.04897
G1 X171.182 Y117.928 E.04609
G3 X172.665 Y117.636 I3.667 J14.764 E.0546
G1 X173.226 Y117.658 E.02026
G1 X173.56 Y116.779 E.03393
G1 X173.537 Y118.127 F18000
;TYPE:Outer wall
G1 F3000
G1 X174.169 Y116.464 E.06425
G3 X175.17 Y114.593 I492.644 J262.252 E.07661
G1 X176.395 Y112.879 E.07608
G1 X177.83 Y111.336 E.07608
G1 X179.451 Y109.989 E.07608
G1 X181.231 Y108.862 E.07608
G1 X183.141 Y107.972 E.07608
G1 X185.149 Y107.334 E.07608
G1 X187.223 Y106.959 E.07608
G1 X189.327 Y106.853 E.07608
G1 X191.428 Y107.018 E.07608
G1 X193.49 Y107.451 E.07608
G1 X195.48 Y108.144 E.07608
G1 X197.364 Y109.087 E.07608
G1 X199.112 Y110.264 E.07608
G1 X200.684 Y111.645 E.07555
G3 X202.086 Y113.237 I-232.909 J206.539 E.07661
G1 X203.263 Y114.985 E.07608
G1 X204.206 Y116.869 E.07608
G1 X204.899 Y118.859 E.07608
G1 X205.332 Y120.921 E.07608
G1 X205.497 Y123.022 E.07608
G1 X205.391 Y125.126 E.07608
G1 X205.017 Y127.2 E.07608
G1 X204.379 Y129.208 E.07608
G1 X203.49 Y131.118 E.07608
G1 X202.37 Y132.886 E.07555
G3 X201.016 Y134.52 I-310.628 J-256.123 E.07661
G1 X199.473 Y135.955 E.07607
G1 X197.759 Y137.18 E.07608
G1 X195.902 Y138.175 E.07608
G1 X193.933 Y138.925 E.07608
G1 X191.883 Y139.415 E.07608
G1 X189.788 Y139.639 E.07608
G1 X187.682 Y139.592 E.07608
G1 X185.598 Y139.276 E.07608
G1 X183.573 Y138.695 E.07608
G1 X181.639 Y137.859 E.07608
G1 X179.828 Y136.782 E.07608
G1 X178.17 Y135.482 E.07608
G1 X176.692 Y133.98 E.07608
G1 X175.428 Y132.312 E.07555
G3 X174.379 Y130.485 I271.363 J-156.948 E.07607
G3 X173.687 Y128.814 I226.317 J-94.692 E.06531
G1 X172.8 Y128.873 E.03211
G3 X171.54 Y128.668 I8.303 J-55.158 E.04606
G1 X170.388 Y128.185 E.04513
G1 X169.378 Y127.449 E.04513
G1 X168.563 Y126.501 E.04513
G1 X167.989 Y125.391 E.04513
G1 X167.684 Y124.179 E.04513
G1 X167.667 Y122.929 E.04513
G1 X167.937 Y121.709 E.04513
G1 X168.48 Y120.583 E.04513
G1 X169.267 Y119.613 E.04512
G1 X170.257 Y118.849 E.04513
G1 X171.371 Y118.344 E.04416
G3 X172.648 Y118.093 I7.094 J32.771 E.047
G1 X173.497 Y118.126 E.03067
G1 X173.512 Y118.051
G1 E-.56 F1800
;WIPE_START
G1 F3000
G1 X173.872 Y117.199 E-.228
;WIPE_END
G1 E-.012 F1800
G1 X170.056 Y117.191 Z.4 F18000
G1 X43.734 Y116.956 Z.4
G1 Z.2
G1 E.8 F1800
;TYPE:Inner wall
G1 F3000
G1 X44.497 Y117.024 E.02768
G3 X45.819 Y117.432 I-5.598 J20.457 E.04994
G1 X46.943 Y118.1 E.04722
G1 X47.892 Y119 E.04722
G1 X48.618 Y120.088 E.04722
G1 X49.084 Y121.31 E.04722
G1 X49.268 Y122.605 E.04722
G1 X49.16 Y123.908 E.04722
G1 X48.766 Y125.155 E.04722
G1 X48.105 Y126.284 E.04722
G1 X47.21 Y127.238 E.04722
G1 X46.19 Y127.927 E.04444
G3 X44.979 Y128.416 I-10.398 J-24.024 E.04716
G3 X43.69 Y128.624 I-5.027 J-27.053 E.04716
G1 X43.057 Y128.592 E.02289
G1 X42.562 Y129.966 E.05272
G1 X41.573 Y131.895 E.07829
G1 X40.344 Y133.682 E.07829
G1 X38.896 Y135.296 E.07829
G1 X37.252 Y136.71 E.07829
G1 X35.441 Y137.902 E.07829
G1 X33.492 Y138.852 E.07829
G1 X31.437 Y139.544 E.07829
G1 X29.31 Y139.966 E.07829
G1 X27.146 Y140.111 E.07829
G1 X24.982 Y139.978 E.07829
G1 X22.853 Y139.568 E.07829
G1 X20.794 Y138.888 E.07829
G1 X18.839 Y137.95 E.07829
G1 X17.021 Y136.768 E.07829
G1 X15.403 Y135.392 E.0767
G3 X13.942 Y133.79 I134.083 J-123.824 E.07828
G3 X12.673 Y131.978 I113.184 J-80.615 E.07987
G1 X11.672 Y130.055 E.07829
G1 X10.927 Y128.019 E.07829
G1 X10.449 Y125.904 E.07829
G1 X10.246 Y123.745 E.07829
G1 X10.323 Y121.578 E.07829
G1 X10.676 Y119.439 E.07829
G1 X11.302 Y117.362 E.07829
G1 X12.188 Y115.384 E.07829
G1 X13.298 Y113.573 E.07669
G3 X14.683 Y111.847 I119.574 J94.51 E.07987
G1 X16.249 Y110.348 E.07829
G1 X17.995 Y109.062 E.07829
G1 X19.892 Y108.011 E.07829
G1 X21.908 Y107.213 E.07829
G1 X24.009 Y106.679 E.07829
G1 X26.162 Y106.42 E.07829
G1 X28.33 Y106.439 E.07829
G1 X30.478 Y106.736 E.07829
G1 X32.57 Y107.307 E.07829
G1 X34.572 Y108.141 E.07829
G1 X36.449 Y109.225 E.07829
G1 X38.173 Y110.541 E.07829
G1 X39.712 Y112.068 E.07829
G1 X41.017 Y113.745 E.07669
G3 X42.122 Y115.61 I-86.247 J52.369 E.07828
G3 X42.718 Y116.991 I-81.92 J36.171 E.0543
G1 X43.348 Y116.922 E.02289
G1 X43.694 Y116.953 E.01254
G1 X42.434 Y117.49 F18000
;TYPE:Outer wall
G1 F3000
G1 X43.256 Y117.379 E.02996
G3 X44.457 Y117.479 I-5.054 J67.385 E.04349
G1 X45.629 Y117.851 E.0444
G1 X46.666 Y118.467 E.04354
G1 X47.54 Y119.296 E.04352
G1 X48.209 Y120.299 E.04352
G1 X48.638 Y121.425 E.04352
G1 X48.808 Y122.618 E.04352
G1 X48.708 Y123.82 E.04352
G1 X48.345 Y124.969 E.04352
G1 X47.736 Y126.009 E.04352
G1 X46.912 Y126.888 E.04352
G1 X45.934 Y127.548 E.04259
G3 X44.814 Y127.99 I-23.164 J-57.174 E.04349
G3 X43.623 Y128.172 I-10.473 J-64.551 E.04349
G1 X42.744 Y128.11 E.03179
G1 X42.142 Y129.784 E.06423
G1 X41.18 Y131.661 E.07616
G1 X39.984 Y133.399 E.07616
G1 X38.575 Y134.969 E.07616
G1 X36.976 Y136.345 E.07616
G1 X35.214 Y137.504 E.07616
G1 X33.318 Y138.428 E.07616
G1 X31.319 Y139.101 E.07616
G1 X29.25 Y139.512 E.07616
G1 X27.145 Y139.653 E.07616
G1 X25.04 Y139.524 E.07616
G1 X22.968 Y139.125 E.07616
G1 X20.965 Y138.464 E.07616
G1 X19.064 Y137.551 E.07616
G1 X17.295 Y136.401 E.07616
G1 X15.7 Y135.044 E.07563
G3 X14.28 Y133.483 I369.303 J-337.266 E.07616
G3 X13.065 Y131.741 I300.767 J-211.18 E.07669
G1 X12.091 Y129.87 E.07616
G1 X11.366 Y127.889 E.07616
G1 X10.901 Y125.832 E.07616
G1 X10.704 Y123.732 E.07616
G1 X10.778 Y121.623 E.07616
G1 X11.122 Y119.542 E.07616
G1 X11.731 Y117.522 E.07616
G1 X12.593 Y115.597 E.07616
G1 X13.688 Y113.812 E.07563
G3 X15.02 Y112.157 I317.04 J253.855 E.07669
G1 X16.544 Y110.699 E.07616
G1 X18.243 Y109.448 E.07616
G1 X20.088 Y108.425 E.07616
G1 X22.049 Y107.648 E.07616
G1 X24.093 Y107.129 E.07616
G1 X26.188 Y106.877 E.07616
G1 X28.297 Y106.896 E.07616
G1 X30.386 Y107.185 E.07616
G1 X32.422 Y107.74 E.07616
G1 X34.369 Y108.551 E.07616
G1 X36.195 Y109.606 E.07616
G1 X37.872 Y110.887 E.07616
G1 X39.37 Y112.372 E.07616
G1 X40.656 Y114.025 E.07563
G3 X41.728 Y115.842 I-403.075 J239.146 E.07616
G3 X42.418 Y117.454 I-268.563 J116.008 E.06331
G1 X42.491 Y117.435
G1 E-.56 F1800
;WIPE_START
G1 F3000
G1 X43.256 Y117.379 E-.19182
G1 X43.415 Y117.392 E-.03618
;WIPE_END
G1 E-.012 F1800
G1 X212.104 Y106.172 Z.4 F18000
G1 Z.4
G1 Z.2
G1 E.8 F1800
;TYPE:Bottom surface
;WIDTH:0.500784
G1 F6300
M73 P2 R46
G1 X211.384 Y105.452 E.03683
G1 X210.736 Y105.452 E.02342
G1 X211.898 Y106.614 E.05942
G1 X211.898 Y107.262 E.02342
G1 X210.089 Y105.452 E.09254
G1 X209.441 Y105.452 E.02342
G1 X211.898 Y107.909 E.12566
G1 X211.898 Y108.557 E.02342
G1 X208.794 Y105.452 E.15878
G1 X208.146 Y105.452 E.02342
G1 X211.898 Y109.204 E.1919
G1 X211.898 Y109.852 E.02342
G1 X206.499 Y104.453 E.27614
G1 X205.852 Y104.453 E.02342
G1 X211.898 Y110.499 E.30926
G1 X211.898 Y111.147 E.02342
G1 X205.204 Y104.453 E.34238
G1 X204.557 Y104.453 E.02342
G1 X211.898 Y111.794 E.3755
G1 X211.898 Y112.442 E.02342
G1 X203.909 Y104.453 E.40862
G1 X203.262 Y104.453 E.02342
G1 X211.898 Y113.089 E.44174
G1 X211.898 Y113.737 E.02342
G1 X202.614 Y104.453 E.47486
G1 X201.967 Y104.453 E.02342
G1 X211.898 Y114.384 E.50798
G1 X211.898 Y115.032 E.02342
G1 X201.319 Y104.453 E.5411
G1 X200.672 Y104.453 E.02342
G1 X211.898 Y115.68 E.57422
G1 X211.898 Y116.327 E.02342
G1 X200.024 Y104.453 E.60734
G1 X199.377 Y104.453 E.02342
G1 X211.898 Y116.975 E.64046
G1 X211.898 Y117.622 E.02342
G1 X198.729 Y104.453 E.67358
G1 X198.082 Y104.453 E.02342
G1 X211.898 Y118.27 E.7067
G1 X211.898 Y118.917 E.02342
G1 X197.434 Y104.453 E.73982
G1 X196.787 Y104.453 E.02342
G1 X211.898 Y119.565 E.77294
G1 X211.898 Y120.212 E.02342
G1 X196.139 Y104.453 E.80606
G1 X195.492 Y104.453 E.02342
G1 X211.898 Y120.86 E.83918
G1 X211.898 Y121.507 E.02342
G1 X194.844 Y104.453 E.8723
G1 X194.197 Y104.453 E.02342
G1 X198.901 Y109.158 E.24063
G1 X199.552 Y109.596 E.02839
G1 X201.217 Y111.049 E.07992
G1 X202.754 Y112.797 E.08417
G1 X203.183 Y113.44 E.02796
G1 X211.898 Y122.155 E.44577
G1 X211.898 Y122.802 E.02342
G1 X204.233 Y115.137 E.39205
G1 X204.882 Y116.434 E.05243
G1 X211.898 Y123.45 E.35887
G1 X211.898 Y124.097 E.02342
G1 X205.245 Y117.444 E.34029
G1 X205.592 Y118.439 E.03808
M73 P2 R45
G1 X211.898 Y124.745 E.32256
G1 X211.898 Y125.392 E.02342
G1 X205.807 Y119.302 E.31153
G1 X205.976 Y120.117 E.03013
G1 X211.898 Y126.04 E.30292
G1 X211.898 Y126.687 E.02342
G1 X206.135 Y120.924 E.29479
G1 X206.189 Y121.626 E.02545
G1 X211.898 Y127.335 E.29202
G1 X211.898 Y127.982 E.02342
G1 X206.243 Y122.327 E.28925
G1 X206.297 Y123.028 E.02543
G1 X211.898 Y128.63 E.28651
G1 X211.898 Y129.277 E.02342
G1 X206.264 Y123.643 E.28818
G1 X206.231 Y124.258 E.02227
G1 X211.898 Y129.925 E.28985
G1 X211.898 Y130.572 E.02342
G1 X206.199 Y124.873 E.29152
G3 X206.143 Y125.465 I-2.37 J.076 E.02156
G1 X211.898 Y131.22 E.29437
G1 X211.898 Y131.867 E.02342
G1 X206.044 Y126.013 E.29943
G1 X205.945 Y126.562 E.02016
G1 X211.898 Y132.515 E.3045
G1 X211.898 Y133.162 E.02342
G1 X205.846 Y127.11 E.30957
G3 X205.714 Y127.626 I-2.116 J-.266 E.0193
G1 X211.898 Y133.81 E.31632
G1 X211.898 Y134.458 E.02342
G1 X205.559 Y128.119 E.32423
G1 X205.405 Y128.612 E.01868
G1 X211.898 Y135.105 E.33213
G1 X211.898 Y135.753 E.02342
G1 X205.25 Y129.105 E.34004
G3 X205.08 Y129.581 I-1.881 J-.404 E.01837
G1 X211.898 Y136.4 E.34877
G1 X211.898 Y137.048 E.02342
G1 X204.874 Y130.023 E.35929
G1 X204.668 Y130.465 E.01763
G1 X211.898 Y137.695 E.36982
G1 X211.898 Y138.343 E.02342
G1 X204.462 Y130.907 E.38034
G1 X204.256 Y131.348 E.01763
G1 X211.898 Y138.99 E.39087
G1 X211.898 Y139.638 E.02342
G1 X204.026 Y131.766 E.40264
G1 X203.775 Y132.162 E.01697
G1 X211.898 Y140.285 E.4155
G1 X211.898 Y140.933 E.02342
G1 X203.524 Y132.558 E.42835
G1 X203.272 Y132.954 E.01697
G1 X211.371 Y141.053 E.41422
G1 X210.723 Y141.053 E.02342
G1 X203.021 Y133.351 E.39396
G1 X202.729 Y133.706 E.01664
G1 X210.076 Y141.053 E.37577
G1 X209.428 Y141.053 E.02342
G1 X202.436 Y134.06 E.35766
G1 X202.142 Y134.414 E.01663
G1 X208.781 Y141.053 E.33955
G1 X208.133 Y141.053 E.02342
G1 X201.849 Y134.768 E.32144
G3 X201.545 Y135.112 I-1.463 J-.987 E.01664
G1 X207.567 Y141.134 E.30804
G2 X207.184 Y141.398 I.291 J.834 E.01704
G1 X201.209 Y135.424 E.30558
G1 X200.873 Y135.736 E.01657
G1 X206.972 Y141.834 E.31194
G2 X206.914 Y142.053 I.353 J.211 E.00828
